packages/kaspersky-hexa-ui-icons/src/iconsSVGs/16/Windows.svg

<svg width="16" height="16" viewBox="0 0 16 16" fill="none" xmlns="http://www.w3.org/2000/svg">
<path fill-rule="evenodd" clip-rule="evenodd" d="M4.6666 2.0166C3.20305 2.0166 2.0166 3.20305 2.0166 4.6666V11.3333C2.0166 12.7968 3.20305 13.9833 4.6666 13.9833H11.3333C12.7968 13.9833 13.9833 12.7968 13.9833 11.3333V4.6666C13.9833 3.20305 12.7968 2.0166 11.3333 2.0166H4.6666ZM7.34994 3.3166H4.6666C3.92102 3.3166 3.3166 3.92102 3.3166 4.6666V7.34994H7.34994V3.3166ZM3.3166 8.64994V11.3333C3.3166 12.0789 3.92102 12.6833 4.6666 12.6833H7.34994V8.64994H3.3166ZM8.64994 12.6833H11.3333C12.0789 12.6833 12.6833 12.0789 12.6833 11.3333V8.64994H8.64994V12.6833ZM12.6833 7.34994H8.64994V3.3166H11.3333C12.0789 3.3166 12.6833 3.92102 12.6833 4.6666V7.34994Z" fill="black"/>
</svg>

<svg xmlns="http://www.w3.org/2000/svg" width="16" height="16" fill="none" viewBox="0 0 16 16"><path fill="#000" fill-rule="evenodd" d="M4.6666 2.0166c-1.4635 0-2.65 1.1865-2.65 2.65v6.6667c0 1.4635 1.1865 2.65 2.65 2.65h6.6667c1.4635 0 2.65-1.1865 2.65-2.65V4.6666c0-1.4635-1.1865-2.65-2.65-2.65zm2.6833 1.3H4.6666c-.7456 0-1.35.6044-1.35 1.35v2.6833h4.0333zM3.3166 8.6499v2.6834c0 .7456.6044 1.35 1.35 1.35h2.6833V8.6499zm5.3333 4.0334h2.6834c.7456 0 1.35-.6044 1.35-1.35V8.6499H8.6499zm4.0334-5.3334H8.6499V3.3166h2.6834c.7456 0 1.35.6044 1.35 1.35z" clip-rule="evenodd"/></svg>
